public/assets/svgs/addons/ember-shepherd.svg

<svg height="60" viewBox="0 0 60 60" width="60" xmlns="http://www.w3.org/2000/svg"><g style="stroke:#000;stroke-width:2;fill:none;fill-rule:evenodd;stroke-linecap:round;stroke-linejoin:round" transform="translate(1)"><path d="m45 19.65v23.35c0 8.836556-7.163444 16-16 16s-16-7.163444-16-16v-23.35"/><path d="m49 14c-.0006156 2.5432383-1.6041682 4.809944-4.0021248 5.6572134-2.3979567.8472694-5.0695775.0911096-6.6677952-1.8872134-1.0660078 1.3205276-2.6416185 2.1275475-4.3361511 2.220955s-3.3492982-.5355449-4.5539889-1.730905c-.15994-.16005-.29994-.32005-.43994-.49005-1.1379973 1.4102711-2.8528859 2.2300452-4.66504 2.2300452s-3.5270427-.8197741-4.66504-2.2300452c-1.6581642 2.053056-4.462953 2.781932-6.9108754 1.7959182-2.4479224-.9860139-3.96442692-3.4554904-3.73659996-6.0846809.22782695-2.6291904 2.14651216-4.80099785 4.72755536-5.3512373-.8624786-2.77062884.5775748-5.73439581 3.2887796-6.76862124 2.7112048-1.03422542 5.7593049.21747516 6.9612204 2.85862124.8910537-1.96093045 2.846114-3.21998239 5-3.21998239s4.1089463 1.25905194 5 3.21998239c1.2000857-2.64409508 4.2500447-3.89833129 6.9630505-2.86341882 2.7130058 1.03491246 4.1527572 4.00180891 3.2869495 6.77341882 2.7673401.59518159 4.7451867 3.0393836 4.75 5.87z"/><path d="m33 42c0 2.209139-1.790861 4-4 4s-4-1.790861-4-4"/><path d="m29 46v13"/><circle cx="22" cy="28" r="3"/><circle cx="36" cy="28" r="3"/><path d="m57.88164 31.25252c-.0517516.4585059-.4135941.8203484-.8721.8721-1.8696.21107-6.71425.44918-9.42586-2.26243-3.40944-3.40944-2.15558-10.19111-2.15558-10.19111s6.78167-1.25387 10.19111 2.15558c2.71161 2.7116 2.4735 7.55626 2.26243 9.42586z"/><path d="m.11836 31.25252c.05175163.4585059.41359413.8203484.8721.8721 1.8696.21107 6.71425.44918 9.42586-2.26243 3.40944-3.40944 2.15558-10.19111 2.15558-10.19111s-6.78167-1.25387-10.19111 2.15558c-2.71161 2.7116-2.4735 7.55626-2.26243 9.42586z"/></g></svg>

<?xml version="1.0" encoding="UTF-8"?>
<svg width="60px" height="60px" viewBox="0 0 60 60" version="1.1" xmlns="http://www.w3.org/2000/svg" xmlns:xlink="http://www.w3.org/1999/xlink">
    <!-- Generator: Sketch 48.2 (47327) - http://www.bohemiancoding.com/sketch -->
    <title>019 - Sheep</title>
    <desc>Created with Sketch.</desc>
    <defs></defs>
    <g id="Page-1" stroke="none" stroke-width="1" fill="none" fill-rule="evenodd" stroke-linecap="round" stroke-linejoin="round">
        <g id="019---Sheep" transform="translate(1.000000, 0.000000)" stroke="#000000" stroke-width="2">
            <path d="M45,19.65 L45,43 C45,51.836556 37.836556,59 29,59 C20.163444,59 13,51.836556 13,43 L13,19.65" id="Shape"></path>
            <path d="M49,14 C48.9993844,16.5432383 47.3958318,18.809944 44.9978752,19.6572134 C42.5999185,20.5044828 39.9282977,19.748323 38.33008,17.77 C37.2640722,19.0905276 35.6884615,19.8975475 33.9939289,19.990955 C32.2993963,20.0843625 30.6446307,19.4554101 29.43994,18.26005 C29.28,18.1 29.14,17.94 29,17.77 C27.8620027,19.1802711 26.1471141,20.0000452 24.33496,20.0000452 C22.5228059,20.0000452 20.8079173,19.1802711 19.66992,17.77 C18.0117558,19.823056 15.206967,20.551932 12.7590446,19.5659182 C10.3111222,18.5799043 8.79461768,16.1104278 9.02244464,13.4812373 C9.25027159,10.8520469 11.1689568,8.68023945 13.75,8.13 C12.8875214,5.35937116 14.3275748,2.39560419 17.0387796,1.36137876 C19.7499844,0.327153335 22.7980845,1.57885392 24,4.22 C24.8910537,2.25906955 26.846114,1.00001761 29,1.00001761 C31.153886,1.00001761 33.1089463,2.25906955 34,4.22 C35.2000857,1.57590492 38.2500447,0.321668711 40.9630505,1.35658118 C43.6760563,2.39149364 45.1158077,5.35839009 44.25,8.13 C47.0173401,8.72518159 48.9951867,11.1693836 49,14 Z" id="Shape"></path>
            <path d="M33,42 C33,44.209139 31.209139,46 29,46 C26.790861,46 25,44.209139 25,42" id="Shape"></path>
            <path d="M29,46 L29,59" id="Shape"></path>
            <circle id="Oval" cx="22" cy="28" r="3"></circle>
            <circle id="Oval" cx="36" cy="28" r="3"></circle>
            <path d="M57.88164,31.25252 C57.8298884,31.7110259 57.4680459,32.0728684 57.00954,32.12462 C55.13994,32.33569 50.29529,32.5738 47.58368,29.86219 C44.17424,26.45275 45.4281,19.67108 45.4281,19.67108 C45.4281,19.67108 52.20977,18.41721 55.61921,21.82666 C58.33082,24.53826 58.09271,29.38292 57.88164,31.25252 Z" id="Shape"></path>
            <path d="M0.11836,31.25252 C0.170111629,31.7110259 0.531954134,32.0728684 0.99046,32.12462 C2.86006,32.33569 7.70471,32.5738 10.41632,29.86219 C13.82576,26.45275 12.5719,19.67108 12.5719,19.67108 C12.5719,19.67108 5.79023,18.41721 2.38079,21.82666 C-0.33082,24.53826 -0.09271,29.38292 0.11836,31.25252 Z" id="Shape"></path>
        </g>
    </g>
</svg>
